X: 1
T: Trandafir de la Moldova
O: Romania
Z: 2014 John Chambers <jc:trillian.mit.edu>
S: handwritten copy from Yaron Shragai
N: "Dansuri populare"
N: "Grup vocal"
Q: "Allegretto"
M: 2/4
L: 1/8
K: C
"B"|:\
"C"CC DE | FE DC | FE DC | "G7"DE F2 | "C"C4- | C4 |
"C"CC DE | "C7"F2 G2 | "F"A4 | "(D7)"c4 | "G7"GA GF | E2 D2 | "C"C4- | C4 :|
"A"|:\
"C"GG c2- | c3 A | _BA GA | _BA GE | "G7"FG F2 | "C"E4- | E4 :|
